X: 17613
T: Hogties
R: reel
M: 4/4
K: Edorian
d|:BABd ~E2ed|BABc dAcd|BABd ~E2ed|BABd FE~E2|
BABd ~E2ed|BABc dAcd|e2dB ABdA|BdAd FE~E2:|
|:eB(3BBB e2dB|BABc d2cd|eB(3BBB e2dB|BABd FE~E2|
eB(3BBB e2dB|BABc d2cd|e2dB ABdA|BdAd FE~E2:|

